Numix-GalliumOS/22/status/yd-busy4.svg

<?xml version="1.0" encoding="UTF-8" standalone="no"?>
<!-- Created with Inkscape (http://www.inkscape.org/) -->

<svg
   xmlns:dc="http://purl.org/dc/elements/1.1/"
   xmlns:cc="http://creativecommons.org/ns#"
   xmlns:rdf="http://www.w3.org/1999/02/22-rdf-syntax-ns#"
   xmlns:svg="http://www.w3.org/2000/svg"
   xmlns="http://www.w3.org/2000/svg"
   xmlns:sodipodi="http://sodipodi.sourceforge.net/DTD/sodipodi-0.dtd"
   xmlns:inkscape="http://www.inkscape.org/namespaces/inkscape"
   id="svg2"
   version="1.1"
   inkscape:version="0.91 r"
   width="22"
   height="22"
   viewBox="0 0 22 22"
   sodipodi:docname="yd-busy4.svg">
  <metadata
     id="metadata8">
    <rdf:RDF>
      <cc:Work
         rdf:about="">
        <dc:format>image/svg+xml</dc:format>
        <dc:type
           rdf:resource="http://purl.org/dc/dcmitype/StillImage" />
        <dc:title />
      </cc:Work>
    </rdf:RDF>
  </metadata>
  <defs
     id="defs6">
    <clipPath
       id="clipPath-408241621">
      <g
         id="g3616"
         transform="translate(0,-1004.3622)">
        <path
           id="path3618"
           transform="matrix(15.333333,0,0,11.5,414.99999,878.8622)"
           d="m -24,13 c 0,1.105 -0.672,2 -1.5,2 -0.828,0 -1.5,-0.895 -1.5,-2 0,-1.105 0.672,-2 1.5,-2 0.828,0 1.5,0.895 1.5,2 z"
           inkscape:connector-curvature="0"
           style="fill:#1890d0" />
      </g>
    </clipPath>
    <clipPath
       id="clipPath-408241621-2">
      <g
         id="g3616-2"
         transform="translate(0,-1004.3622)">
        <path
           id="path3618-9"
           transform="matrix(15.333333,0,0,11.5,414.99999,878.8622)"
           d="m -24,13 c 0,1.105 -0.672,2 -1.5,2 -0.828,0 -1.5,-0.895 -1.5,-2 0,-1.105 0.672,-2 1.5,-2 0.828,0 1.5,0.895 1.5,2 z"
           inkscape:connector-curvature="0"
           style="fill:#1890d0" />
      </g>
    </clipPath>
    <clipPath
       id="clipPath-408241621-2-6">
      <g
         id="g3616-2-4"
         transform="translate(0,-1004.3622)">
        <path
           id="path3618-9-4"
           transform="matrix(15.333333,0,0,11.5,414.99999,878.8622)"
           d="m -24,13 c 0,1.105 -0.672,2 -1.5,2 -0.828,0 -1.5,-0.895 -1.5,-2 0,-1.105 0.672,-2 1.5,-2 0.828,0 1.5,0.895 1.5,2 z"
           inkscape:connector-curvature="0"
           style="fill:#1890d0" />
      </g>
    </clipPath>
  </defs>
  <sodipodi:namedview
     pagecolor="#ffffff"
     bordercolor="#666666"
     borderopacity="1"
     objecttolerance="10"
     gridtolerance="10"
     guidetolerance="10"
     inkscape:pageopacity="0"
     inkscape:pageshadow="2"
     inkscape:window-width="1366"
     inkscape:window-height="747"
     id="namedview4"
     showgrid="true"
     showguides="false"
     inkscape:zoom="22.627416"
     inkscape:cx="11.990585"
     inkscape:cy="12.354745"
     inkscape:window-x="0"
     inkscape:window-y="21"
     inkscape:window-maximized="1"
     inkscape:current-layer="svg2">
    <inkscape:grid
       type="xygrid"
       id="grid4142" />
  </sodipodi:namedview>
  <path
     style="opacity:1;fill:#ececec;fill-opacity:0.94117647;fill-rule:nonzero;stroke:none;stroke-width:1;stroke-linecap:square;stroke-linejoin:round;stroke-miterlimit:4;stroke-dasharray:none;stroke-dashoffset:0;stroke-opacity:1"
     d="M 10.851562 6.2285156 C 10.230582 6.2344347 9.6134312 6.3565607 9.03125 6.5898438 L 9.25 6.9277344 C 10.685641 6.3592165 12.336892 6.5263236 13.636719 7.4707031 C 13.776292 7.572109 13.903627 7.6847008 14.029297 7.7988281 C 14.180188 7.777852 14.324558 7.764212 14.472656 7.7460938 C 14.277311 7.5475816 14.067816 7.3584567 13.837891 7.1914062 C 13.761705 7.136054 13.681546 7.0934532 13.603516 7.0429688 C 13.446691 6.9600717 13.274462 6.8571273 13.123047 6.765625 C 12.400467 6.4031436 11.624356 6.2211495 10.851562 6.2285156 z M 11.046875 8.0703125 C 10.453454 8.0389624 9.8611605 8.1795882 9.3457031 8.4941406 L 8.7207031 8.875 L 8.6621094 8.7832031 L 8.7578125 8.9902344 C 9.1509761 8.8688848 9.5494893 8.7495012 9.9589844 8.6386719 C 10.576674 8.4714946 11.18116 8.3329688 11.777344 8.2050781 C 11.536503 8.1326533 11.292642 8.0832962 11.046875 8.0703125 z M 6.7910156 8.3164062 L 6.296875 8.7011719 C 6.2315814 8.818488 6.1527242 8.9617026 6.0761719 9.0820312 L 6.3652344 9.1582031 L 6.2226562 9.8496094 C 6.2201475 9.861888 6.2211584 9.8744311 6.21875 9.8867188 C 6.3666755 9.8271279 6.5239833 9.7692418 6.6757812 9.7109375 L 6.7519531 9.3066406 L 7.3183594 9.4550781 L 6.7910156 8.3164062 z M 16.822266 8.3535156 C 16.785718 8.3542428 16.743884 8.3584063 16.707031 8.359375 C 17.234241 9.4334128 17.471163 10.638445 17.361328 11.839844 L 18.939453 12.298828 C 20.367922 11.353246 21.168419 10.407456 20.96875 9.6542969 C 20.738921 8.7824483 19.221652 8.3057902 16.822266 8.3535156 z M 15.060547 8.4746094 C 14.935709 8.4877928 14.804584 8.5100613 14.677734 8.5253906 C 15.398063 9.5256619 15.704628 10.778124 15.470703 12.001953 L 15.320312 12.789062 L 14.785156 12.648438 L 15.3125 13.744141 L 16.199219 13.064453 L 15.708984 12.919922 L 15.853516 12.240234 C 16.125354 10.956562 15.814145 9.5876709 15.060547 8.4746094 z M 12.884766 8.8007812 C 12.00979 8.9628897 11.118146 9.154483 10.216797 9.3984375 C 9.832152 9.5025385 9.473484 9.6227412 9.1035156 9.7363281 L 10.021484 11.712891 L 8.0429688 11.195312 C 8.1249688 12.040044 8.5744956 12.83208 9.3378906 13.386719 C 10.368506 14.135505 11.747393 14.188111 12.759766 13.554688 L 13.371094 13.171875 L 12.023438 10.375 L 14.03125 10.900391 C 13.955875 10.101708 13.549285 9.3424532 12.884766 8.8007812 z M 6.5449219 10.625 C 6.4055244 10.681212 6.2760834 10.739685 6.140625 10.796875 C 6.1410859 12.357506 6.8940918 13.88899 8.2539062 14.876953 C 8.8232865 15.290632 9.455431 15.56276 10.105469 15.707031 C 10.445048 15.633104 10.7913 15.545918 11.138672 15.458984 C 10.19926 15.462668 9.2589884 15.182265 8.4570312 14.599609 C 7.1621503 13.658823 6.4467181 12.161735 6.5449219 10.625 z M 4.7324219 11.435547 C 2.2510661 12.677122 0.76279803 14.036218 1.03125 15.048828 C 1.343124 16.23177 3.9714488 16.605149 7.484375 16.160156 C 7.4483038 16.135013 7.4087214 16.117716 7.3730469 16.091797 C 5.8156419 14.960276 4.9031919 13.249329 4.7324219 11.435547 z "
     id="path4138" />
  <g
     id="g4263"
     transform="matrix(0.42307692,0,0,0.42307692,6.3606939,7.5192308)">
    <g
       style="fill:#ececec;fill-opacity:1"
       id="g3628"
       transform="matrix(0.34782609,0,0,0.34782609,2.6435901,2.6456559)" />
    <g
       transform="matrix(0.49988464,0,0,0.49988464,-37.411065,7.9950011)"
       clip-path="url(#clipPath-408241621)"
       id="g3650">
      <!-- color: #004794 -->
      <g
         id="g3652" />
    </g>
  </g>
  <g
     id="g4174"
     transform="matrix(-0.80901699,-0.58778526,0.58778526,-0.80901699,13.462111,26.385733)">
    <g
       style="fill:#ececec;fill-opacity:1"
       id="g3628-8"
       transform="matrix(0.34782609,0,0,0.34782609,2.6435901,2.6456559)">
      <path
         inkscape:connector-curvature="0"
         id="path3630"
         transform="matrix(2.875,0,0,2.875,97.067647,-33.481261)"
         d="m -25.40625,14.5 c 2.303968,0 4.367461,1.302964 5.28125,3.3125 l 1.21875,-0.46875 -1,3.46875 -3.3125,-1.84375 1.28125,-0.5 c -0.620857,-1.310198 -1.9541,-2.125 -3.46875,-2.125 -1.572637,0 -2.996131,0.939574 -3.5625,2.34375 L -30.75,18 c 0.844805,-2.103515 2.984794,-3.5 5.34375,-3.5 z m -5.5,4.71875 3.3125,1.78125 -1.28125,0.5 c 0.613358,1.304699 1.964097,2.15625 3.46875,2.15625 1.575636,0 2.978635,-0.910324 3.5625,-2.3125 l 1.78125,0.6875 c -0.876798,2.103015 -2.979296,3.46875 -5.34375,3.46875 -2.292471,0 -4.386956,-1.339213 -5.28125,-3.34375 l -1.21875,0.4375 z"
         style="fill:#ececec;fill-opacity:1"
         sodipodi:nodetypes="scccccsccscccsccsccc" />
    </g>
    <g
       transform="matrix(0.49988464,0,0,0.49988464,-37.411065,7.9950011)"
       clip-path="url(#clipPath-408241621-2)"
       id="g3650-3">
      <!-- color: #004794 -->
      <g
         id="g3652-1" />
    </g>
  </g>
  <g
     id="g4174-4"
     style="stroke:#000000;stroke-width:1.5;stroke-miterlimit:4;stroke-dasharray:none;stroke-opacity:1"
     transform="matrix(-0.80901699,-0.58778526,0.58778526,-0.80901699,10.53474,16.843704)">
    <g
       style="fill:#ececec;fill-opacity:1;stroke:#000000;stroke-width:4.3125;stroke-miterlimit:4;stroke-dasharray:none;stroke-opacity:1"
       id="g3628-8-4"
       transform="matrix(0.34782609,0,0,0.34782609,2.6435901,2.6456559)" />
    <g
       transform="matrix(0.49988464,0,0,0.49988464,-37.411065,7.9950011)"
       clip-path="url(#clipPath-408241621-2-6)"
       id="g3650-3-9"
       style="stroke:#000000;stroke-width:3.00069237;stroke-miterlimit:4;stroke-dasharray:none;stroke-opacity:1">
      <!-- color: #004794 -->
      <g
         id="g3652-1-7"
         style="stroke:#000000;stroke-width:3.00069237;stroke-miterlimit:4;stroke-dasharray:none;stroke-opacity:1" />
    </g>
  </g>
</svg>

<svg xmlns="http://www.w3.org/2000/svg" viewBox="0 0 22 22">
 <path d="m 10.852 6.229 c -0.621 0.006 -1.238 0.128 -1.82 0.361 l 0.219 0.338 c 1.436 -0.569 3.087 -0.401 4.387 0.543 c 0.14 0.101 0.267 0.214 0.393 0.328 c 0.151 -0.021 0.295 -0.035 0.443 -0.053 c -0.195 -0.199 -0.405 -0.388 -0.635 -0.555 c -0.076 -0.055 -0.156 -0.098 -0.234 -0.148 c -0.157 -0.083 -0.329 -0.186 -0.48 -0.277 c -0.723 -0.362 -1.499 -0.544 -2.271 -0.537 z m 0.195 1.842 c -0.593 -0.031 -1.186 0.109 -1.701 0.424 l -0.625 0.381 l -0.059 -0.092 l 0.096 0.207 c 0.393 -0.121 0.792 -0.241 1.201 -0.352 c 0.618 -0.167 1.222 -0.306 1.818 -0.434 c -0.241 -0.072 -0.485 -0.122 -0.73 -0.135 z m -4.256 0.246 l -0.494 0.385 c -0.065 0.117 -0.144 0.261 -0.221 0.381 l 0.289 0.076 l -0.143 0.691 c -0.003 0.012 -0.001 0.025 -0.004 0.037 c 0.148 -0.06 0.305 -0.117 0.457 -0.176 l 0.076 -0.404 l 0.566 0.148 l -0.527 -1.139 z m 10.03 0.037 c -0.037 0.001 -0.078 0.005 -0.115 0.006 c 0.527 1.074 0.764 2.279 0.654 3.48 l 1.578 0.459 c 1.428 -0.946 2.229 -1.891 2.029 -2.645 c -0.23 -0.872 -1.747 -1.349 -4.146 -1.301 z m -1.762 0.121 c -0.125 0.013 -0.256 0.035 -0.383 0.051 c 0.72 1 1.027 2.253 0.793 3.477 l -0.15 0.787 l -0.535 -0.141 l 0.527 1.096 l 0.887 -0.68 l -0.49 -0.145 l 0.145 -0.68 c 0.272 -1.284 -0.039 -2.653 -0.793 -3.766 z m -2.176 0.326 c -0.875 0.162 -1.767 0.354 -2.668 0.598 c -0.385 0.104 -0.743 0.224 -1.113 0.338 l 0.918 1.977 l -1.979 -0.518 c 0.082 0.845 0.532 1.637 1.295 2.191 c 1.031 0.749 2.41 0.801 3.422 0.168 l 0.611 -0.383 l -1.348 -2.797 l 2.01 0.525 c -0.075 -0.799 -0.482 -1.558 -1.146 -2.1 z m -6.34 1.824 c -0.139 0.056 -0.269 0.115 -0.404 0.172 c 0 1.561 0.753 3.092 2.113 4.08 c 0.569 0.414 1.202 0.686 1.852 0.83 c 0.34 -0.074 0.686 -0.161 1.033 -0.248 c -0.939 0.004 -1.88 -0.277 -2.682 -0.859 c -1.295 -0.941 -2.01 -2.438 -1.912 -3.975 z m -1.813 0.811 c -2.481 1.242 -3.97 2.601 -3.701 3.613 c 0.312 1.183 2.94 1.556 6.453 1.111 c -0.036 -0.025 -0.076 -0.042 -0.111 -0.068 c -1.557 -1.132 -2.47 -2.842 -2.641 -4.656 z" style="fill:#ececec;opacity:1;fill-opacity:0.941;stroke:none;fill-rule:nonzero"/>
 <g transform="matrix(0.42307692,0,0,0.42307692,6.3606939,7.5192308)">
  <g transform="matrix(0.49988464,0,0,0.49988464,-37.411065,7.9950011)">
   <!-- color: #004794 -->
  </g>
 </g>
 <g transform="matrix(-0.80901699,-0.58778526,0.58778526,-0.80901699,13.462111,26.385733)">
  <g transform="matrix(0.34782609,0,0,0.34782609,2.6435901,2.6456559)" style="fill:#ececec;fill-opacity:1">
   <path transform="matrix(2.875,0,0,2.875,97.067647,-33.481261)" d="m -25.406 14.5 c 2.304 0 4.367 1.303 5.281 3.313 l 1.219 -0.469 -1 3.469 -3.313 -1.844 1.281 -0.5 c -0.621 -1.31 -1.954 -2.125 -3.469 -2.125 -1.573 0 -2.996 0.94 -3.563 2.344 l -1.781 -0.688 c 0.845 -2.104 2.985 -3.5 5.344 -3.5 z m -5.5 4.719 3.313 1.781 -1.281 0.5 c 0.613 1.305 1.964 2.156 3.469 2.156 1.576 0 2.979 -0.91 3.563 -2.313 l 1.781 0.688 c -0.877 2.103 -2.979 3.469 -5.344 3.469 -2.292 0 -4.387 -1.339 -5.281 -3.344 l -1.219 0.438 z"/>
  </g>
  <g transform="matrix(0.49988464,0,0,0.49988464,-37.411065,7.9950011)">
   <!-- color: #004794 -->
  </g>
 </g>
 <g transform="matrix(-0.80901699,-0.58778526,0.58778526,-0.80901699,10.53474,16.843704)" style="stroke-dasharray:none;stroke-opacity:1;stroke-miterlimit:4;stroke:#000;stroke-width:1.5">
  <g transform="matrix(0.49988464,0,0,0.49988464,-37.411065,7.9950011)" style="stroke-width:3">
   <!-- color: #004794 -->
  </g>
 </g>
</svg>
